resources/svg/upload-2-fill.svg

<svg xmlns="http://www.w3.org/2000/svg" viewBox="0 0 24 24" fill="currentColor">
    <g>
        <path fill="none" d="M0 0h24v24H0z"/>
        <path d="M4 19h16v-7h2v8a1 1 0 0 1-1 1H3a1 1 0 0 1-1-1v-8h2v7zM14 9v6h-4V9H5l7-7 7 7h-5z"/>
    </g>
</svg>

<svg fill="currentColor" viewBox="0 0 24 24" xmlns="http://www.w3.org/2000/svg"><path d="M4 19H20V12H22V20C22 20.5523 21.5523 21 21 21H3C2.44772 21 2 20.5523 2 20V12H4V19ZM14 9V15H10V9H5L12 2L19 9H14Z"/></svg>
